X:7295
T:Humors of Rockstown Reel
M:4/4
L:1/8
K:Em
BEE_d =d2^cB|A2(3FED FAA2|BEEF GAB^c|dBAc BEE2|!
BEE_d =d2^cB|A2(3FED FAA2|BEEF GAB^c|dBAc BEE2:|!
|:e3f gfge|defg afd2|edef gfe^c|dBAc BEE2|!
e2ef gfge|defg afdf|g2fd e^cdA|(3BcdAc BEE2:|!
